X:1
T:Praise Ye Jehovah (Reitz)
T:Ernest Orlando Sellers
T:Praise Ye Jehovah (Reitz)
T:Public Domain
T:Public Domain
T:Public Domain
C:Ernest Orlando Sellers
Z:Public Domain
%%score ( 1 2 ) ( 3 4 )
L:1/8
M:6/8
K:Eb
V:1 treble 
V:2 treble 
V:3 bass 
V:4 bass 
V:1
 [EG]2 [EG] ([EG][B,F])[B,E] | [EB]2 [Ec] [EG]2 [EG] | [FA]2 [FA] ([FA][EG])[DF] | %3
w: 1.~Let thy morn- * ing|thoughts be bright With|prais- es un- * to|
w: 2.~Let thy noon- * day|hours be filled With|songs of glad- * ness|
w: 3.~Let the clos- * ing|hours of ev- ening|Hear thy heart- * felt|
 [EG]2 [FA] [GB]3 | [Ac]2 [Ac] (ed)[Ac] | [GB]2 [Gc] [EG]2 [EG] | [DF]2 [DF] (=AG)[EF] | %7
w: God on high;|Let thy heart * and|re- joic- ing, All|thy bless- ings * mag-|
w: for thy king;|Gloom- y days * will|o’er- take thee When|His prais- es * you|
w: words of praise;|For His lov- * ing|and keep- ing, Praise|Him through- out * all|
 [Fd]2 [Ec] (D2 A) ||"^Refrain" [Ge]4 [Bd][Ac] | [GB]3 [EG]3 | [DA]3 [DF]3 | [EG]2 [FA] [GB]3 | %12
w: fy. * * *|||||
w: sing. Praise ye *|ho- vah; praise|His ho-|ly name;|Praise ye Je-|
w: days. * * *|||||
 [Ac]4 [Ad][Ac] | [GB]3 [EG]3 | [EG]2 [EG] [EF]2 [Ec] | ([DB-]3 [AB]2) z | [Ge]4 [Bd][Ac] | %17
w: |||||
w: ho- vah, all|ye ends|of earth; Praise ye|His *|name, for- ev-|
w: |||||
 [GB]3 [EG]3 | [Ac]4 [GB][FA] | ([EG]2 [FA]) [GB]3 | [Ac]4 [Ad][Ae] | [Ge]3 [GB]2 [Ac] | %22
w: |||||
w: er ex-|alt it; Let|all * the|earth praise the|name of the|
w: |||||
 [EG]4 [FA][DF] | E6 |] %24
w: ||
w: Lord. * *||
w: ||
V:2
 x6 | x6 | x6 | x6 | x3 A2 x | x6 | x3 E2 x | x3 B3 || x6 | x6 | x6 | x6 | x6 | x6 | x6 | x6 | x6 | %17
w: ||||voice,||ni-|||||||||||
w: ||||ne’er||can|Je-||||||||||
w: ||||care||thy|||||||||||
 x6 | x6 | x6 | x6 | x6 | x6 | E6 |] %24
w: |||||||
w: |||||||
w: |||||||
V:3
 [E,B,]2 [E,B,] (B,A,)[E,G,] | [E,G,]2 [E,A,] [E,B,]2 [E,B,] | [B,,B,]2 [B,,B,] [B,,B,]2 [B,,B,] | %3
w: ~ ~ ~ * ~|~ ~ ~ ~|~ ~ ~ ~|
 [E,B,]2 [E,B,] [E,E]3 | [A,E]2 [A,E] (CD)[A,E] | [E,E]2 [E,E] [E,B,]2 [E,B,] | %6
w: ~ ~ ~|~ ~ ~ * ~|~ ~ ~ ~|
 [F,B,]2 [F,B,] (CB,)[F,=A,] | [F,=A,]2 [F,A,] (B,2 D) || z3 [E,B,][E,B,][E,E] | [E,E]3 [E,B,]3 | %10
w: ~ ~ ~ * ~|Praise ye ~ *|~ ~ ~|~ ~|
 [F,B,]3 [B,,B,]3 | [E,B,]2 [E,B,] [E,E]3 | z3 [A,E][A,E][A,E] | [E,E]3 [E,B,]3 | %14
w: ~ ~|~ ~ ~|~ ~ ~|~ ~|
 [C,C]2 [C,B,] F,2 [F,A,] | ([B,,-B,]3 [B,,D]2) z | z3 [E,B,][E,B,][E,E] | [E,E]3 [E,B,]3 | %18
w: ~ ~ ~ ~|~ *|~ ~ ~|~ ~|
 [D,B,]3 [B,,B,]2 [B,,B,] | [E,B,]3 [F,E]3 | z3 [A,E][A,D][A,C] | [E,B,]3 [E,E]2 [A,,E] | %22
w: ~ ~ ~|~ ~|~ ~ ~|the Name *|
 [B,,B,]2 [B,,B,] [B,,B,][B,,C][B,,A,] | [E,G,]6 |] %24
w: ||
V:4
 x3 E,2 x | x6 | x6 | x6 | x3 A,2 x | x6 | x3 F,2 x | x3 B,,3 || x6 | x6 | x6 | x6 | x6 | x6 | x6 | %15
w: ~||||~||~|~||||||||
 x6 | x6 | x6 | x6 | x6 | x6 | x6 | x6 | x6 |] %24
w: |||||||||

